public/images/issues.svg

<svg width="1920" height="2211" fill="none" xmlns="http://www.w3.org/2000/svg"><path fill-rule="evenodd" clip-rule="evenodd" d="M-8.4 1547.6c-143.793-208.76-259.625-437.54-238.04-692.352 26.603-314.042-92.563-696.543 202.344-823.549C249.711-94.832 716.27 202.52 1027.26 259.758c361.23 66.485 752.93-148.579 1009.27 107.198 264.28 263.7 189.76 725.614 55.9 1080.054-123.89 328.03-395.66 603.26-732.75 712.11-290.68 93.87-573.02-79.42-847.112-201.94-210.84-94.25-391.173-221.15-520.968-409.58Z" fill="url(#a)"/><path fill-rule="evenodd" clip-rule="evenodd" d="M-26.394 1563.27c-144.876-210.63-261.806-441.31-241.12-697.68 25.495-315.962-95.346-701.364 199.722-828.091 293.967-126.255 762.628 174.739 1074.502 233.5 362.24 68.252 753.99-146.74 1011.83 111.632 265.82 266.376 192.85 730.979 60.02 1087.199-122.94 329.69-394.26 605.67-731.67 713.98-290.95 93.39-574.546-82.07-849.68-206.39-211.642-95.63-392.832-224.02-523.604-414.15Z" fill="url(#b)"/><defs><linearGradient id="a" x1="813.416" y1="1580.62" x2="361.229" y2="-135.213" gradientUnits="userSpaceOnUse"><stop offset=".117" stop-color="#AAA"/><stop offset=".959" stop-color="#3732BD"/><stop offset="1" stop-color="#3732BD"/></linearGradient><linearGradient id="b" x1="797.305" y1="1599.56" x2="345.271" y2="-130.939" gradientUnits="userSpaceOnUse"><stop offset=".117" stop-color="#070C29"/><stop offset=".959" stop-color="#3732BD"/><stop offset="1" stop-color="#3732BD"/></linearGradient></defs></svg>

<svg width="1920" height="2211" viewBox="0 0 1920 2211" fill="none" xmlns="http://www.w3.org/2000/svg">
<path fill-rule="evenodd" clip-rule="evenodd" d="M-8.39969 1547.6C-152.193 1338.84 -268.025 1110.06 -246.44 855.248C-219.837 541.206 -339.003 158.705 -44.096 31.6994C249.711 -94.8325 716.27 202.519 1027.26 259.758C1388.49 326.243 1780.19 111.179 2036.53 366.956C2300.81 630.656 2226.29 1092.57 2092.43 1447.01C1968.54 1775.04 1696.77 2050.27 1359.68 2159.12C1069 2252.99 786.66 2079.7 512.568 1957.18C301.728 1862.93 121.395 1736.03 -8.39969 1547.6Z" fill="url(#paint0_linear_349_20358)"/>
<path fill-rule="evenodd" clip-rule="evenodd" d="M-26.3943 1563.27C-171.27 1352.64 -288.2 1121.96 -267.514 865.59C-242.019 549.628 -362.86 164.226 -67.7923 37.4988C226.175 -88.7561 694.836 212.238 1006.71 270.999C1368.95 339.251 1760.7 124.259 2018.54 382.631C2284.36 649.007 2211.39 1113.61 2078.56 1469.83C1955.62 1799.52 1684.3 2075.5 1346.89 2183.81C1055.94 2277.2 772.344 2101.74 497.21 1977.42C285.568 1881.79 104.378 1753.4 -26.3943 1563.27Z" fill="url(#paint1_linear_349_20358)"/>
<defs>
<linearGradient id="paint0_linear_349_20358" x1="813.416" y1="1580.62" x2="361.229" y2="-135.213" gradientUnits="userSpaceOnUse">
<stop offset="0.117494" stop-color="#AAAAAA"/>
<stop offset="0.959351" stop-color="#3732BD"/>
<stop offset="1" stop-color="#3732BD"/>
</linearGradient>
<linearGradient id="paint1_linear_349_20358" x1="797.305" y1="1599.56" x2="345.271" y2="-130.939" gradientUnits="userSpaceOnUse">
<stop offset="0.117494" stop-color="#070C29"/>
<stop offset="0.959351" stop-color="#3732BD"/>
<stop offset="1" stop-color="#3732BD"/>
</linearGradient>
</defs>
</svg>
